src/icons/flags/rw.svg

<svg viewBox="0 0 640 480" xmlns="http://www.w3.org/2000/svg" xmlns:xlink="http://www.w3.org/1999/xlink"><path d="m0 0h640v480h-640z" fill="#20603d"/><path d="m0 0h640v360h-640z" fill="#fad201"/><path d="m0 0h640v240h-640z" fill="#00a1de"/><g transform="matrix(.66667 0 0 .66667 511 125.4)"><g id="a"><path id="b" d="m116.1 0-80.4 4.7 76.4 25.4-78.8-16.3 67.3 44.2-72-36.2 53.4 60.3-60.1-53.5 36.2 72-44.3-67.3 16.2 78.7-25.3-76.3-4.7 80.4-1-117.1z" fill="#e5be01"/><use height="100%" transform="scale(1 -1)" width="100%" xlink:href="#b"/></g><use height="100%" transform="scale(-1 1)" width="100%" xlink:href="#a"/><circle fill="#e5be01" r="34.3" stroke="#00a1de" stroke-width="3.4"/></g></svg>

<svg xmlns="http://www.w3.org/2000/svg" xmlns:xlink="http://www.w3.org/1999/xlink" id="flag-icon-css-rw" viewBox="0 0 640 480">
  <path fill="#20603d" d="M0 0h640v480H0z"/>
  <path fill="#fad201" d="M0 0h640v360H0z"/>
  <path fill="#00a1de" d="M0 0h640v240H0z"/>
  <g transform="translate(511 125.4) scale(.66667)">
    <g id="b">
      <path id="a" fill="#e5be01" d="M116.1 0L35.7 4.7l76.4 25.4-78.8-16.3L100.6 58l-72-36.2L82 82.1 21.9 28.6l36.2 72-44.3-67.3L30 112 4.7 35.7 0 116.1-1-1z"/>
      <use width="100%" height="100%" transform="scale(1 -1)" xlink:href="#a"/>
    </g>
    <use width="100%" height="100%" transform="scale(-1 1)" xlink:href="#b"/>
    <circle r="34.3" fill="#e5be01" stroke="#00a1de" stroke-width="3.4"/>
  </g>
</svg>
